build/svg/cmd/sc_heading1parastyle.svg

<?xml version="1.0" encoding="UTF-8" standalone="no"?>
<svg
   xmlns:dc="http://purl.org/dc/elements/1.1/"
   xmlns:cc="http://creativecommons.org/ns#"
   xmlns:rdf="http://www.w3.org/1999/02/22-rdf-syntax-ns#"
   xmlns:svg="http://www.w3.org/2000/svg"
   xmlns="http://www.w3.org/2000/svg"
   xmlns:sodipodi="http://sodipodi.sourceforge.net/DTD/sodipodi-0.dtd"
   xmlns:inkscape="http://www.inkscape.org/namespaces/inkscape"
   viewBox="0 0 16 16"
   version="1.1"
   id="svg6"
   sodipodi:docname="sc_heading1parastyle.svg"
   inkscape:export-filename="/home/jupiter007/Libreoffice yaru theme fullcolor/build/cmd/sc_heading1parastyle.png"
   inkscape:export-xdpi="96"
   inkscape:export-ydpi="96"
   inkscape:version="0.92.5 (2060ec1f9f, 2020-04-08)">
  <metadata
     id="metadata12">
    <rdf:RDF>
      <cc:Work
         rdf:about="">
        <dc:format>image/svg+xml</dc:format>
        <dc:type
           rdf:resource="http://purl.org/dc/dcmitype/StillImage" />
      </cc:Work>
    </rdf:RDF>
  </metadata>
  <defs
     id="defs10" />
  <sodipodi:namedview
     pagecolor="#ffffff"
     bordercolor="#666666"
     borderopacity="1"
     objecttolerance="10"
     gridtolerance="10"
     guidetolerance="10"
     inkscape:pageopacity="0"
     inkscape:pageshadow="2"
     inkscape:window-width="1920"
     inkscape:window-height="1011"
     id="namedview8"
     showgrid="true"
     inkscape:zoom="29.5"
     inkscape:cx="4.3765157"
     inkscape:cy="7.3892313"
     inkscape:window-x="0"
     inkscape:window-y="32"
     inkscape:window-maximized="1"
     inkscape:current-layer="svg6">
    <inkscape:grid
       type="xygrid"
       id="grid822" />
  </sodipodi:namedview>
  <path
     style="fill:#000000;stroke:#000000;opacity:0.6;stroke-width:2;stroke-miterlimit:4;stroke-dasharray:none;stroke-linejoin:round"
     inkscape:connector-curvature="0"
     id="path824"
     d="M 1,2 V 14 H 3 V 9 h 4 v 5 H 9 V 2 H 7 V 7 H 3 V 2 Z" />
  <path
     style="fill:#000000;fill-opacity:1;stroke:#000000;opacity:0.6;stroke-width:2;stroke-miterlimit:4;stroke-dasharray:none;stroke-linejoin:round"
     id="path826"
     fill="#762572"
     d="m12.949219 8-1.949219 1.5390625.617188.7636715.695312-.5546871c.082758-.0656635.228992-.2033922.441406-.4140625l-.019531.6230468-.013672.5703128v3.472656h1.279297v-6z" />
  <path
     d="M 1,2 V 14 H 3 V 9 h 4 v 5 H 9 V 2 H 7 V 7 H 3 V 2 Z"
     id="path2"
     inkscape:connector-curvature="0"
     style="fill:#ffffff" />
  <path
     d="m12.949219 8-1.949219 1.5390625.617188.7636715.695312-.5546871c.082758-.0656635.228992-.2033922.441406-.4140625l-.019531.6230468-.013672.5703128v3.472656h1.279297v-6z"
     fill="#762572"
     id="path4"
     style="fill:#aee3f8;fill-opacity:1" />
</svg>

<svg xmlns="http://www.w3.org/2000/svg" viewBox="0 0 16 16"><path d="M1 2v12h2V9h4v5h2V2H7v5H3V2zM12.95 8L11 9.54l.617.763.695-.555a6.75 6.75 0 00.442-.414l-.02.623-.013.57V14H14V8z" stroke="#000" opacity=".6" stroke-width="2" stroke-linejoin="round"/><path d="M1 2v12h2V9h4v5h2V2H7v5H3V2z" fill="#fff"/><path d="M12.95 8L11 9.54l.617.763.695-.555a6.75 6.75 0 00.442-.414l-.02.623-.013.57V14H14V8z" fill="#aee3f8"/></svg>
